front/public/static/landing/logos/gray/cursor.svg

<svg fill="none" height="300" viewBox="400 290 800 400" width="600" xmlns="http://www.w3.org/2000/svg" xmlns:xlink="http://www.w3.org/1999/xlink"><clipPath id="a"><path d="m400 395h800v191h-800z"/></clipPath><g clip-path="url(#a)"><path d="m483.395 490.5 82.605 47.797c-.507.881-1.243 1.633-2.155 2.159l-77.209 44.674c-2.004 1.16-4.477 1.16-6.482 0l-77.209-44.674c-.911-.526-1.648-1.278-2.155-2.159z" fill="#5a6070"/><path d="m483.395 395v95.5l-82.605 47.797c-.508-.881-.79-1.899-.79-2.951v-89.692c0-2.109 1.122-4.054 2.945-5.11l77.205-44.674c1.004-.58 2.123-.87 3.241-.87z" fill="#364153"/><path d="m565.996 442.703c-.507-.881-1.244-1.633-2.155-2.159l-77.209-44.674c-1-.58-2.119-.87-3.237-.87v95.5l82.605 47.797c.507-.881.789-1.899.789-2.951v-89.692c0-1.056-.278-2.066-.789-2.951z" fill="#2a3345"/><path d="m560.218 446.049c.468.809.533 1.847 0 2.771l-74.983 130.154c-.503.881-1.843.519-1.843-.495v-85.766c0-.684-.183-1.343-.515-1.919l77.338-44.749h.003z" fill="#a0a3b0"/><path d="m560.218 446.049-77.338 44.748c-.328-.573-.807-1.06-1.4-1.403l-74.111-42.883c-.879-.505-.518-1.848.493-1.848h149.962c1.065 0 1.93.576 2.394 1.386z" fill="#c8cad4"/><g fill="#364153"><path d="m658.164 444.669h32.39v17.882h-31.293c-16.881 0-30.057 9.766-30.057 30.398 0 20.633 13.176 30.399 30.057 30.399h31.293v17.882h-33.762c-28.274 0-48.311-16.643-48.311-48.277s21.409-48.276 49.683-48.276z"/><path d="m707.024 444.669h20.037v59.007c0 14.715 6.725 21.595 22.51 21.595 15.784 0 22.509-6.876 22.509-21.595v-59.007h20.037v63.132c0 21.456-13.587 35.076-42.546 35.076-28.96 0-42.547-13.756-42.547-35.212z"/><path d="m896.831 472.042c0 10.729-6.175 18.981-14.412 22.558v.276c8.648 1.239 13.04 7.428 13.176 15.819l.411 30.535h-20.037l-.411-27.233c-.136-6.052-3.706-9.766-10.842-9.766h-33.351v36.999h-20.037v-96.561h55.311c18.117 0 30.192 9.215 30.192 27.373zm-20.176 2.75c0-8.251-4.392-12.792-12.625-12.792h-32.665v25.581h32.937c7.547 0 12.353-4.538 12.353-12.793z"/><path d="m972.586 513.03c0-6.876-4.392-9.766-10.978-10.314l-22.235-2.063c-19.214-1.787-29.234-9.355-29.234-27.648s12.353-28.336 30.056-28.336h49.132v17.331h-47.759c-6.862 0-11.253 3.577-11.253 10.453 0 6.877 4.527 10.179 11.392 10.73l22.645 1.927c17.157 1.511 28.41 9.354 28.41 27.784s-11.939 28.336-28.821 28.336h-51.329v-17.331h49.407c6.45 0 10.567-4.401 10.567-10.865z"/><path d="m1051.37 443.019c30.19 0 49.27 19.393 49.27 49.791s-19.9 50.067-50.1 50.067c-30.19 0-49.27-19.669-49.27-50.067s19.9-49.791 50.1-49.791zm28.54 49.931c0-20.357-11.8-32.322-28.96-32.322-17.15 0-28.96 11.965-28.96 32.322 0 20.356 11.81 32.321 28.96 32.321 17.16 0 28.96-11.965 28.96-32.321z"/><path d="m1200 472.042c0 10.729-6.18 18.981-14.41 22.558v.276c8.65 1.239 13.04 7.428 13.17 15.819l.41 30.535h-20.03l-.41-27.233c-.14-6.052-3.71-9.766-10.85-9.766h-33.35v36.999h-20.03v-96.561h55.31c18.11 0 30.19 9.215 30.19 27.373zm-20.18 2.75c0-8.251-4.39-12.792-12.62-12.792h-32.67v25.581h32.94c7.55 0 12.35-4.538 12.35-12.793z"/></g></g></svg>

<svg xmlns="http://www.w3.org/2000/svg" fill="none" viewBox="400 290 800 400" width="600" height="300">
  <g clip-path="url(#clip0_cursor)">
    <path fill="#5a6070" d="M483.395 490.5L566 538.297C565.493 539.178 564.757 539.93 563.845 540.456L486.636 585.13C484.632 586.29 482.159 586.29 480.154 585.13L402.945 540.456C402.034 539.93 401.297 539.178 400.79 538.297L483.395 490.5Z"></path>
    <path fill="#364153" d="M483.395 395V490.5L400.79 538.297C400.282 537.416 400 536.398 400 535.346V445.654C400 443.545 401.122 441.6 402.945 440.544L480.15 395.87C481.154 395.29 482.273 395 483.391 395H483.395Z"></path>
    <path fill="#2a3345" d="M565.996 442.703C565.489 441.822 564.752 441.07 563.841 440.544L486.632 395.87C485.632 395.29 484.513 395 483.395 395V490.5L566 538.297C566.507 537.416 566.789 536.398 566.789 535.346V445.654C566.789 444.598 566.511 443.588 566 442.703H565.996Z"></path>
    <path fill="#a0a3b0" d="M560.218 446.049C560.686 446.858 560.751 447.896 560.218 448.82L485.235 578.974C484.732 579.855 483.392 579.493 483.392 578.479V492.713C483.392 492.029 483.209 491.37 482.877 490.794L560.215 446.045H560.218V446.049Z"></path>
    <path fill="#c8cad4" d="M560.218 446.049L482.88 490.797C482.552 490.224 482.073 489.737 481.48 489.394L407.369 446.511C406.49 446.006 406.851 444.663 407.862 444.663H557.824C558.889 444.663 559.754 445.239 560.218 446.049Z"></path>
    <path fill="#364153" d="M658.164 444.669H690.554V462.551H659.261C642.38 462.551 629.204 472.317 629.204 492.949C629.204 513.582 642.38 523.348 659.261 523.348H690.554V541.23H656.792C628.518 541.23 608.481 524.587 608.481 492.953C608.481 461.319 629.89 444.677 658.164 444.677V444.669Z"></path>
    <path fill="#364153" d="M707.024 444.669H727.061V503.676C727.061 518.391 733.786 525.271 749.571 525.271C765.355 525.271 772.08 518.395 772.08 503.676V444.669H792.117V507.801C792.117 529.257 778.53 542.877 749.571 542.877C720.611 542.877 707.024 529.121 707.024 507.665V444.669Z"></path>
    <path fill="#364153" d="M896.831 472.042C896.831 482.771 890.656 491.023 882.419 494.6V494.876C891.067 496.115 895.459 502.304 895.595 510.695L896.006 541.23H875.969L875.558 513.997C875.422 507.945 871.852 504.231 864.716 504.231H831.365V541.23H811.328V444.669H866.639C884.756 444.669 896.831 453.884 896.831 472.042ZM876.655 474.792C876.655 466.541 872.263 462 864.03 462H831.365V487.581H864.302C871.849 487.581 876.655 483.043 876.655 474.788V474.792Z"></path>
    <path fill="#364153" d="M972.586 513.03C972.586 506.154 968.194 503.264 961.608 502.716L939.373 500.653C920.159 498.866 910.139 491.298 910.139 473.005C910.139 454.712 922.492 444.669 940.195 444.669H989.327V462H941.568C934.706 462 930.315 465.577 930.315 472.453C930.315 479.33 934.842 482.632 941.707 483.183L964.352 485.11C981.509 486.621 992.762 494.464 992.762 512.894C992.762 531.324 980.823 541.23 963.941 541.23H912.612V523.899H962.019C968.469 523.899 972.586 519.498 972.586 513.034V513.03Z"></path>
    <path fill="#364153" d="M1051.37 443.019C1081.56 443.019 1100.64 462.412 1100.64 492.81C1100.64 523.208 1080.74 542.877 1050.54 542.877C1020.35 542.877 1001.27 523.208 1001.27 492.81C1001.27 462.412 1021.17 443.019 1051.37 443.019ZM1079.91 492.95C1079.91 472.593 1068.11 460.628 1050.95 460.628C1033.8 460.628 1021.99 472.593 1021.99 492.95C1021.99 513.306 1033.8 525.271 1050.95 525.271C1068.11 525.271 1079.91 513.306 1079.91 492.95Z"></path>
    <path fill="#364153" d="M1200 472.042C1200 482.771 1193.82 491.023 1185.59 494.6V494.876C1194.24 496.115 1198.63 502.304 1198.76 510.695L1199.17 541.23H1179.14L1178.73 513.997C1178.59 507.945 1175.02 504.231 1167.88 504.231H1134.53V541.23H1114.5V444.669H1169.81C1187.92 444.669 1200 453.884 1200 472.042ZM1179.82 474.792C1179.82 466.541 1175.43 462 1167.2 462H1134.53V487.581H1167.47C1175.02 487.581 1179.82 483.043 1179.82 474.788V474.792Z"></path>
  </g>
  <defs>
    <clipPath id="clip0_cursor">
      <rect transform="translate(400 395)" height="191" width="800"></rect>
    </clipPath>
  </defs>
</svg>
